X: 17653
T: Hollings, The
R: reel
M: 4/4
K: Dmajor
|:A|B2 FB B2 FB|(3Bcd fe dcBc|ABFA DFAd|fgef dcBA|
B2 FB B2 FB|(3Bcd fe dcBc|ABFA DFAd|fgef d2z:|
|:e|fgef dcBA|DFAd f2 ef|eA (3AAA A3 f2|eA (3AAA gfed|
fgef dcBA|DFAd f2 ed|cA (3AAA eA (3AAA|fage d2z:|

